!!!COM: Schubert, Franz
!!!CNT: Deutscher
!!!TXO: Deutsch
!!!LYR: Johann Wolfgang von Goethe
!!!OTL: "Lied der Mignon (Nur wer die Sehnsucht kennt)"
!!!OPS: Op. 62
!!!ONM: No. 4
!!!ODT: 1826/
!!NB: Vocal melody only encoded.
!!NB: Original key: a minor
**kern	**kerm
*staff1	*
*clefG2	*
*k[b-e-]	*
*M6/8	*
*MM[Langsam]	*
=7	=7
{4.g	{Nur
4a	wer
8a	die
=8	=8
4b-	Sehn-
16b-	-sucht
16a	|
4.g}	kennt,}
=9	=9
{4.a	{weiss,
8.b-	was
16a	|
8b-	ich
=10	=10
4dd	lei-
8cc	|
4a}	-de,}
8r	.
=11	=11
{4.b-	{nur
4cc	wer
8cc	die
=12	=12
[4dd	Sehn-
16dd]	|
16ee-	-sucht
4dd	kennt,
8cc}	|}
=13	=13
{4.b-	{weiss,
8a	was
8g	|
8a	ich
=14	=14
4.cc	lei-
4b-}	-de!}
8r	.
=15	=15
4r	.
8r	.
4r	.
{8f	{Al-
=16	=16
4b-	-lein
8b-	und
4dd-	ab-
8dd-	-ge-
=17	=17
4cc	-trennt
8cc	von
8cc	al-
8dd-	|
8b-	-ler
=18	=18
4.b-	Freu-
4a-}	-de,}
{8a-	{seh
=19	=19
4g	ich
8g	ans
4bn	Fir-
8b	-ma-
=20	=20
4cc	-ment
8cc	nach
8.ee-	je-
16dd	|
16cc	-ner
16b-	|
=21	=21
4.a	Sei-
ccq	|
b-q	|
4a}	-te.}
8r	.
=22	=22
2.r	.
=23	=23
{4a	{Ach!
8r	.
4b-	der
8a	mich
=24	=24
4dd	liebt
8b-	und
4g}	kennt,}
8r	.
=25	=25
{4ee-	{ist
8dd	|
8.a	in
16b-	|
8a	der
=26	=26
4dd	Wei-
8b-	|
4g}	-te.}
8r	.
=27	=27
4r	.
8r	.
4r	.
{8bn	{Es
=28	=28
16.bn	schwin-
32cc	-delt
8cc}	mir,}
8r	.
4r	.
{8ee-	{es
=29	=29
8.ee-	brennt
16ee-	mein
16.ee-	Ein-
32ee-	-ge-
8ee-	-wei-
8b-	-de,
16r	.
16b-	es
=30	=30
16.b-	schwin-
32a	-delt
8a}	mir,}
8r	.
4r	.
{8a	{es
=31	=31
4a	brennt
8a	mein
[4b-	Ein-
16b-]	|
16g	-ge-
=32	=32
gq	-wei-
8f#	|
8f#}	-de.}
8r	.
4r	.
8r	.
=33	=33
4r	.
8r	.
4r	.
8r	.
=34	=34
{4.g	{Nur
4a	wer
8a	die
=35	=35
4b-	Sehn-
16b-	-sucht
16a	|
4.g}	kennt,}
=36	=36
{4.a	{weiss,
8.b-	was
16a	|
8b-	ich
=37	=37
4dd	lei-
8cc	|
4.a}	-de,}
=38	=38
{4.b-	{nur
4cc	wer
8cc	die
=39	=39
4dd	Sehn-
8dd	-sucht
4.ee-}	kennt,}
=40	=40
{8g	{weiss,
8f#	was
8g	ich
[4b-	Lei-
16b-]	|
16a	|
=41	=41
4g}	-de!}
8r	.
8r	.
8r	.
8r	.
==	==
*-	*-